X: 11703
Q: "Moderate."
M: C
L: 1/8
K: Am
E |\
|: e |\
E<EE>F E<EG2 | A<AB>^G A<cd2 |
e>fec d>cB<G | E<^FG>F E<^G A :|\
|: d |\
e<ea>g e<eg2 | B<Bc>B A>^GA<F |\
EDEC D<EG2 | E<dc>B c<A A :|


